X:1
T: Balquidder Strathspey
T: 8 x 32S 3C (RSCDS Bk 24)
P: Mr. Oswald of Auchencruive
R: strathspey
C: Robert Mackintosh
C: arr. T. Traub 6-14-99
M: 4/4
L: 1/8
%
K: G
|: D|"G"G>A B<d B>A B<g|"G"d<B"C"A>G "D"F<AA>B|"G"G/A/B B<B "Em"B>ABg|"D"d<BA>G "G"D<G G :|
f|"G"g>a b<g "D"f<da<f|"G"g/f/g/a/ b>g "D"f<aa>f|"Em"g>a b<g "D"f<da<f|"C"g<e"D"d>c "G"B<GG>f|
"G"g>a b<g "D"f<da<f|"Em"g/f/g/a/ b>g "D"f<aa>f|"G"g<b"D"a<b "Em"g<a"D"f<g|"Am"e<a"D"f<d "G"g>a g |]
